assets/Cricket game/Flat/cricket_game_flat.svg

<svg width="32" height="32" viewBox="0 0 32 32" fill="none" xmlns="http://www.w3.org/2000/svg">
<path d="M8.4741 27.4526L11.8641 29.4126L12.4941 29.7826C13.2841 30.2426 14.2941 29.9726 14.7541 29.1726L22.3241 16.0626C22.6641 15.4726 22.7541 14.7626 22.5741 14.1026L21.9741 11.8926L20.5 10.5L18.59 9.93262L16.3641 10.5126C15.7041 10.6826 15.1341 11.1126 14.7941 11.7126L7.2241 24.8226C6.7641 25.6126 7.0341 26.6226 7.8341 27.0826L8.4741 27.4526Z" fill="#F3AD61"/>
<path d="M21.9741 11.8926L25.9941 4.93263C26.5341 4.00263 26.2141 2.80262 25.2841 2.26262C24.3541 1.72262 23.1541 2.04264 22.6141 2.97264L18.5941 9.93263L21.9741 11.8926Z" fill="#533566"/>
<path d="M25 24.5C25 25.8807 23.8807 27 22.5 27C21.1193 27 20 25.8807 20 24.5C20 23.1193 21.1193 22 22.5 22C23.8807 22 25 23.1193 25 24.5Z" fill="#F8312F"/>
<path d="M20.8097 22.6581L24.9409 25.0432C24.8282 25.5517 24.5607 26.0019 24.1904 26.342L20.0592 23.9568C20.1719 23.4483 20.4394 22.9981 20.8097 22.6581Z" fill="#D3D3D3"/>
</svg>

<svg xmlns="http://www.w3.org/2000/svg" width="32" height="32" fill="none"><path fill="#F3AD61" d="m8.474 27.453 3.39 1.96.63.37c.79.46 1.8.19 2.26-.61l7.57-13.11c.34-.59.43-1.3.25-1.96l-.6-2.21L20.5 10.5l-1.91-.567-2.226.58c-.66.17-1.23.6-1.57 1.2l-7.57 13.11c-.46.79-.19 1.8.61 2.26l.64.37Z"/><path fill="#533566" d="m21.974 11.893 4.02-6.96c.54-.93.22-2.13-.71-2.67-.93-.54-2.13-.22-2.67.71l-4.02 6.96 3.38 1.96Z"/><path fill="#F8312F" d="M25 24.5a2.5 2.5 0 1 1-5 0 2.5 2.5 0 0 1 5 0Z"/><path fill="#D3D3D3" d="m20.81 22.658 4.13 2.385c-.112.509-.38.959-.75 1.299l-4.13-2.385c.112-.509.38-.959.75-1.299Z"/></svg>
